X:1
T:Title
%%score { ( 1 4 ) | ( 2 3 ) }
L:1/8
Q:1/4=106
M:4/4
K:D
V:1 treble nm="Grand Piano"
V:4 treble 
V:2 bass 
V:3 bass 
V:1
 F2 E2 D [Fd]3 | [GB] [Gd]3 [GB] [FA]3 | D2 F2 [FA]3 [FA] | [GB]A[A,DF]D [A,CE]4 | F2 E2 D d3 | %5
w: J.~H.~Tenney * * *|||||
 B2 d2 [GB] [FA]3 | z EFG [DFA]3 [B,GB] | [DF]2[K:bass] [G,CE]2 [F,D]4 | %8
w: |||
 [Fd]2 [Gc]2 [Ad] [DA]2 [DFA] | [DGB]>[DBd] [DAc]>[DGB] [DFA]4 | [Fd]2 [Gc]2 [Ad] A2 [Fd] | %11
w: |||
 c>d c>B [CA]4 | [EG]2 [^DF]2 [EG] [CE]2 [=DF] | [EG]>[GB] [FA]>[EG] [DF]4 | %14
w: |||
[M:35/32] z4 z e3- e3/4 |[M:4/4] (3:2:2d3 [Ec]3 [Fd]4 |] %16
w: ||
V:2
 [D,A,D]2 [D,G,C]2 [D,F,] [D,A,]3 | [G,B,] [G,B,]3 [D,D] [D,D]3 | [D,F,]2 [D,A,D]2 [D,D]3 [D,D] | %3
 z F z F, A,,4 | [D,A,D]2 [G,A,C]2 [F,A,] [F,A,D]3 | [G,DG]2 [G,B,G]2[K:bass] [D,D] [D,D]3 | %6
 F,G,DE D,3 G, | A,2 A,,2 D,4 | [D,A,]2 [E,A,]2 [F,A,] F,2 D, | G,>G, G,>G, D,4 | %10
 [D,A,]2 [E,A,]2 [F,A,] [F,D]2 [D,A,] | [E,A,E]>[E,B,E] [E,A,E]>[E,^G,D] [A,,A,]4 | %12
 [A,,A,]2 [A,,A,]2 [A,,A,] [A,,A,]2 [A,,A,] | [A,,A,]>[A,,A,] [A,,A,]>[A,,A,] [D,A,]4 | %14
[M:35/32] [D,A,]2 [F,^A,E]2[K:treble] [G,B,D]G-[G,G-]/ [G,G]2- [G,G]/4 | %15
[M:4/4] (3:2:2[A,F]3[K:bass] [A,,A,]3 [D,A,]4 |] %16
V:3
 x8 | x8 | x8 | [D,D]2 D,2 z4 | x8 | x4[K:bass] x4 | D,2 [D,A,]2 z4 | x8 | x8 | x8 | x8 | x8 | x8 | %13
 x8 |[M:35/32] z4[K:treble] z .[G,B,]3/2 z2 z/4 |[M:4/4] x2[K:bass] x6 |] %16
V:4
 x8 | x8 | x8 | x8 | x8 | x8 | D2 z2 z4 | x2[K:bass] x6 | x8 | x8 | x8 | x8 | x8 | x8 | %14
[M:35/32] [Fd]2 c2 .B2 B,/ B,2- B,/4 |[M:4/4] x8 |] %16

